public/assets/images/others/facility-08.svg

<svg width="46" height="37" viewBox="0 0 46 37" fill="none" xmlns="http://www.w3.org/2000/svg">
<path d="M29.3943 10.7569C29.7726 10.8821 30.1885 10.8081 30.5004 10.5601L34.4799 7.39678C35.1061 6.89901 35.2083 5.98702 34.7079 5.36296C34.6543 5.29613 34.5949 5.23406 34.53 5.17824C32.3079 3.26931 29.6453 1.94269 26.7817 1.31881C23.8762 0.685792 20.8578 0.796757 18.0066 1.64142C15.1664 2.49937 12.5904 4.06437 10.5202 6.18974C8.45002 8.31511 6.95329 10.9313 6.17031 13.7931C5.91742 14.7456 8.05171 13.5438 9.02425 13.3842L14.4648 12.4913C15.0135 12.4013 15.5309 12.1535 15.9059 11.743C19.3091 8.0289 25.0436 7.49667 29.0226 10.557C29.1348 10.6433 29.26 10.7125 29.3943 10.7569Z" fill="#EA4335"/>
<path d="M39.8898 13.7079C39.8902 13.7079 39.8906 13.7075 39.8904 13.7071C39.3069 11.5739 38.3243 9.58253 37.0052 7.83366C35.8164 6.25735 33.5357 6.34613 32.1358 7.73839C30.5564 9.30921 30.7763 11.9156 31.7548 13.9168C31.7819 13.9722 31.8084 14.0278 31.8345 14.0838C32.4495 15.4056 32.7554 16.8503 32.7288 18.308C32.7288 18.8387 33.1633 19.2591 33.6839 19.3625C35.9047 19.8033 37.5788 21.7513 37.5788 24.0892C37.5788 26.7463 35.4067 28.9065 32.7288 28.9065L23.0378 28.8975C22.4878 28.9568 22.0708 29.421 22.0708 29.9743V35.5665C22.0708 36.0823 22.4446 36.522 22.9537 36.605C23.0097 36.6142 23.0663 36.6188 23.1231 36.6188H32.7288C35.4297 36.6453 38.0677 35.8029 40.2535 34.2161C42.4393 32.6292 44.0572 30.3819 44.8686 27.8055C45.6696 25.2328 45.6173 22.4701 44.7197 19.9294C43.8223 17.3895 42.128 15.2076 39.8895 13.7091C39.8889 13.7088 39.8892 13.7079 39.8898 13.7079Z" fill="#4285F4"/>
<path d="M13.3306 36.6138C13.3316 36.6147 13.3329 36.6153 13.3342 36.6153H19.1699C21.3012 36.6153 23.029 34.8875 23.029 32.7561C23.029 30.6248 21.3012 28.897 19.1699 28.897H13.3291C12.9256 28.897 12.5251 28.8299 12.1365 28.7177C11.603 28.5636 11.0368 28.5075 10.5058 28.6698C10.1518 28.778 9.82933 28.9704 9.56599 29.2305L6.34875 32.4086C6.15992 32.5951 6.02549 32.8296 5.95989 33.0868C5.81503 33.6548 6.0197 34.2611 6.51176 34.5797C8.53687 35.891 10.9011 36.6 13.327 36.6123C13.3284 36.6123 13.3297 36.6128 13.3306 36.6138Z" fill="#34A853"/>
<path d="M13.3322 11.5412C10.7115 11.5521 8.15955 12.3799 6.0316 13.9095C3.90364 15.4391 2.30566 17.5942 1.46019 20.0747C0.623644 22.5537 0.585059 25.2325 1.34986 27.7345C1.82262 29.2811 2.58765 30.7121 3.59415 31.9544C4.66741 33.2791 6.62449 33.1259 7.83195 31.9222L9.14414 30.6142C10.206 29.5558 9.82052 27.6624 9.09555 26.3501C8.58966 25.4343 8.39605 24.3786 8.54405 23.343C8.69205 22.3073 9.1736 21.3481 9.91574 20.6107C10.6579 19.8732 11.6201 19.3978 12.6567 19.2565C13.6936 19.1077 14.7507 19.2986 15.6699 19.8006C16.996 20.5248 18.8946 20.9107 19.9664 19.8457L21.2397 18.5805C22.4629 17.3651 22.6172 15.3832 21.2708 14.3059C20.5494 13.7288 19.7645 13.2307 18.929 12.8224C17.1857 11.9704 15.2724 11.5319 13.3322 11.5412Z" fill="#FBBC05"/>
</svg>

<svg xmlns="http://www.w3.org/2000/svg" width="46" height="37" fill="none" viewBox="0 0 46 37"><path fill="#ea4335" d="M29.394 10.757a1.18 1.18 0 0 0 1.106-.197l3.98-3.163a1.444 1.444 0 0 0 .05-2.219 17.66 17.66 0 0 0-16.523-3.537A17.53 17.53 0 0 0 6.17 13.793c-.253.953 1.882-.25 2.854-.409l5.44-.893c.55-.09 1.067-.338 1.442-.748 3.403-3.714 9.138-4.246 13.117-1.186q.169.13.371.2"/><path fill="#4285f4" d="M39.89 13.708a17.4 17.4 0 0 0-2.885-5.874c-1.189-1.577-3.47-1.488-4.87-.096-1.579 1.571-1.359 4.178-.38 6.179l.08.167a9.6 9.6 0 0 1 .894 4.224c0 .53.434.951.955 1.055 2.22.44 3.895 2.388 3.895 4.726 0 2.657-2.172 4.818-4.85 4.818l-9.691-.01c-.55.06-.967.524-.967 1.077v5.592a1.05 1.05 0 0 0 1.052 1.053h9.606a12.6 12.6 0 0 0 12.14-8.814 12.49 12.49 0 0 0-4.98-14.097"/><path fill="#34a853" d="m13.33 36.614.004.001h5.836a3.86 3.86 0 0 0 0-7.718h-5.84c-.404 0-.805-.067-1.194-.18-.533-.153-1.1-.21-1.63-.047a2.3 2.3 0 0 0-.94.56l-3.217 3.18a1.46 1.46 0 0 0-.39.678c-.144.568.06 1.174.553 1.493a12.66 12.66 0 0 0 6.819 2.034"/><path fill="#fbbc05" d="M13.332 11.541A12.6 12.6 0 0 0 1.46 20.075a12.52 12.52 0 0 0 2.134 11.88c1.073 1.324 3.03 1.17 4.238-.033l1.312-1.308c1.062-1.058.677-2.952-.048-4.264a4.81 4.81 0 0 1 3.56-7.094 4.85 4.85 0 0 1 3.014.545c1.326.724 3.225 1.11 4.296.045l1.274-1.265c1.223-1.216 1.377-3.198.03-4.275a12.6 12.6 0 0 0-7.938-2.765"/></svg>
